Sources/FrostedUI/Resources/Icons.xcassets/checkmarkCircleFilled24.imageset/checkmark-circle-filled-24.svg

<svg width="24" height="24" viewBox="0 0 24 24" fill="none" xmlns="http://www.w3.org/2000/svg" data-fui-icon="true">
  <path
    d="M12 1C18.0751 1 23 5.92487 23 12C23 18.0751 18.0751 23 12 23C5.92487 23 1 18.0751 1 12C1 5.92487 5.92487 1 12 1ZM16.5195 8.45898C16.2207 8.17215 15.7458 8.18174 15.459 8.48047L10.0098 14.1562L7.55078 11.4912C7.2698 11.187 6.79551 11.1683 6.49121 11.4492C6.18704 11.7302 6.16833 12.2045 6.44922 12.5088L9.44922 15.7588L9.50391 15.8125C9.63825 15.931 9.81138 15.9981 9.99219 16C10.1989 16.002 10.3978 15.9186 10.541 15.7695L16.541 9.51953C16.8278 9.22075 16.8183 8.74585 16.5195 8.45898Z"
    fill="currentColor"
  />
</svg>

<svg xmlns="http://www.w3.org/2000/svg" width="24" height="24" fill="none" data-fui-icon="true" viewBox="0 0 24 24"><path fill="currentColor" d="M12 1c6.075 0 11 4.925 11 11s-4.925 11-11 11S1 18.075 1 12 5.925 1 12 1m4.52 7.459a.75.75 0 0 0-1.061.021l-5.45 5.676-2.458-2.665a.75.75 0 0 0-1.102 1.018l3 3.25.055.053a.75.75 0 0 0 1.037-.042l6-6.25a.75.75 0 0 0-.021-1.061"/></svg>
